Papirus/64x64/apps/com.endlessnetwork.frogsquash.svg

<svg width="64" height="64" version="1.1" xmlns="http://www.w3.org/2000/svg">
 <path d="m43 9.9998123a6 6 0 0 0-5.335938 3.2695307c-10.025846 1.103605-11.607881 5.539457-17.664062 10.730469-7 6-16 8-16 19 0 7 10 10 18 10 12 0 20-7 26-16 4.771712-7.157567 12-15 12-19 0-1.735943-1.520076-4.222548-11.726562-4.849609a6 6 0 0 0-5.273438-3.1503907z" style="opacity:.2"/>
 <path d="m43 9a6 6 0 0 0-5.335938 3.269531c-10.025846 1.103605-11.607881 5.539457-17.664062 10.730469-7 6-16 8-16 19 0 7 10 10 18 10 12 0 20-7 26-16 4.771712-7.157567 12-15 12-19 0-1.735943-1.520076-4.222548-11.726562-4.849609a6 6 0 0 0-5.273438-3.150391z" style="fill:#38ac52"/>
 <path d="M 59.064453 14.941406 C 53.373511 16.819305 40.33069 21.446207 32 27 C 23.526437 32.649042 14.516299 41.725995 8.1914062 48.626953 C 11.839582 50.938353 17.262881 52 22 52 C 34 52 42 45 48 36 C 52.771712 28.842433 60 21 60 17 C 60 16.371541 59.80071 15.643237 59.064453 14.941406 z " style="fill:#d5bd80"/>
 <circle cx="43" cy="15.999812" r="3" style="opacity:.1"/>
 <circle cx="43" cy="15" r="3" style="fill:#3f3f3f"/>
 <path d="m40.929688 34.001765c-0.286542 0.0098-0.567633 0.08106-0.824219 0.208985l-6 3c-1.065991 0.533024-1.432246 1.874137-0.785157 2.875l11 17c0.368552 0.569933 1.000973 0.914087 1.679688 0.914062h9s1.167503 0.02758 2.394531-0.585938c1.227028-0.613513 2.605469-2.247395 2.605469-4.414062 0-2.5-1.128594-4.322709-2.390625-5.164062-1.262031-0.841354-2.609375-0.835938-2.609375-0.835938h-3.951172l-8.404297-12.138672c-0.388025-0.559731-1.034198-0.883553-1.714843-0.859375z" style="opacity:.2"/>
 <path d="m 40.929688,33.001953 c -0.286542,0.0098 -0.567633,0.08106 -0.824219,0.208985 l -6,3 c -1.065991,0.533024 -1.432246,1.874137 -0.785157,2.875 l 11,17 C 44.688864,56.655871 45.321285,57.000025 46,57 h 9 c 0,0 1.167503,0.02758 2.394531,-0.585938 C 58.621559,55.800549 60,54.166667 60,52 60,49.5 58.871406,47.677291 57.609375,46.835938 56.347344,45.994584 55,46 55,46 H 51.048828 L 42.644531,33.861328 c -0.388025,-0.559731 -1.034198,-0.883553 -1.714843,-0.859375 z" style="fill:#3fbf5b"/>
 <path d="m16 32.999812c-5.733333 0-9.1124663 3.464613-10.570312 6.671875s-1.4296875 6.328125-1.4296875 6.328125v7c0 1.333333 0.364533 2.692658 1.3359375 3.664062 0.9714045 0.971405 2.3307292 1.335938 3.6640625 1.335938h26s1.167503 0.02758 2.394531-0.585938c1.227028-0.613513 2.605469-2.247395 2.605469-4.414062 0-2.5-1.128594-4.322709-2.390625-5.164062-1.262031-0.841354-2.609375-0.835938-2.609375-0.835938h-6v-1l-0.0078 0.181641s0.32754-3.211052-1.171876-6.509766c-1.499427-3.298714-5.209213-6.671875-11.820324-6.671875z" style="opacity:.2"/>
 <path d="M 16,32 C 10.266667,32 6.8875337,35.464613 5.4296875,38.671875 3.9718413,41.879137 4,45 4,45 v 7 c 0,1.333333 0.364533,2.692658 1.3359375,3.664062 C 6.307342,56.635467 7.6666667,57 9,57 h 26 c 0,0 1.167503,0.02758 2.394531,-0.585938 C 38.621559,55.800549 40,54.166667 40,52 40,49.5 38.871406,47.677291 37.609375,46.835938 36.347344,45.994584 35,46 35,46 h -6 v -1 l -0.0078,0.181641 c 0,0 0.32754,-3.211052 -1.171876,-6.509766 C 26.320897,35.373161 22.611111,32 16,32 Z" style="fill:#5dca75"/>
 <path d="M 43 9 A 6 6 0 0 0 37.664062 12.269531 C 27.638216 13.373136 26.056181 17.808988 20 23 C 13 29 4 31 4 42 C 4 42.121297 4.0096821 42.238522 4.015625 42.357422 C 4.3634915 31.924102 13.139742 29.880221 20 24 C 26.056181 18.808988 27.638216 14.373136 37.664062 13.269531 A 6 6 0 0 1 43 10 A 6 6 0 0 1 48.273438 13.150391 C 57.635532 13.725574 59.667661 15.858958 59.943359 17.548828 C 59.969625 17.36179 60 17.173025 60 17 C 60 15.264057 58.479923 12.777452 48.273438 12.150391 A 6 6 0 0 0 43 9 z " style="fill:#ffffff;opacity:.2"/>
 <path d="m40.929688 33.001953c-0.286542 0.0098-0.567633 0.08106-0.824219 0.208985l-6 3c-0.861924 0.430985-1.255911 1.388961-1.03711 2.269531 0.142523-0.530167 0.501504-1.001714 1.03711-1.269531l6-3c0.256586-0.127926 0.537677-0.199185 0.824219-0.208985 0.680644-0.024178 1.326818 0.299644 1.714843 0.859375l8.404297 12.138672h3.951172s1.347344-0.005416 2.609375 0.835938c1.160031 0.773353 2.195711 2.382636 2.357422 4.578124 0.011487-0.137735 0.033203-0.27158 0.033203-0.414062 0-2.5-1.128594-4.32271-2.390625-5.164062-1.262031-0.841354-2.609375-0.835938-2.609375-0.835938h-3.951172l-8.404297-12.138672c-0.388025-0.559731-1.034199-0.883553-1.714843-0.859375z" style="fill:#ffffff;opacity:.2"/>
 <path d="m16 32c-5.733333 0-9.1124663 3.464613-10.570312 6.671875s-1.4296875 6.328125-1.4296875 6.328125v1s-0.0281587-3.120863 1.4296875-6.328125 4.8369795-6.671875 10.570312-6.671875c6.611111 0 10.320885 3.373161 11.820312 6.671875 0.980618 2.157358 1.159237 4.185855 1.179688 5.394531v-0.042968c0.033278-0.411802 0.212439-3.288887-1.179688-6.351563-1.499427-3.298714-5.209201-6.671875-11.820312-6.671875zm13.001953 14c-4.17e-4 0.00538-0.001572 0.018728-0.001953 0.023438v0.976562h6s1.347344-0.005416 2.609375 0.835938c1.160031 0.773353 2.195711 2.382636 2.357422 4.578124 0.011487-0.137735 0.033203-0.27158 0.033203-0.414062 0-2.5-1.128594-4.32271-2.390625-5.164062-1.262031-0.841354-2.609375-0.835938-2.609375-0.835938h-5.998047z" style="fill:#ffffff;opacity:.2"/>
</svg>

<?xml version="1.0" encoding="UTF-8" standalone="no"?>
<svg
   id="_图层_1"
   version="1.1"
   viewBox="0 0 64 64" width="64" height="64"
   sodipodi:docname="com.endlessnetwork.frogsquash.svg"
   xml:space="preserve"
   inkscape:version="1.4 (e7c3feb100, 2024-10-09)"
   xmlns:inkscape="http://www.inkscape.org/namespaces/inkscape"
   xmlns:sodipodi="http://sodipodi.sourceforge.net/DTD/sodipodi-0.dtd"
   xmlns="http://www.w3.org/2000/svg"
   xmlns:svg="http://www.w3.org/2000/svg"><sodipodi:namedview
     id="namedview26"
     pagecolor="#505050"
     bordercolor="#eeeeee"
     borderopacity="1"
     inkscape:showpageshadow="0"
     inkscape:pageopacity="0"
     inkscape:pagecheckerboard="0"
     inkscape:deskcolor="#505050"
     inkscape:zoom="8.453125"
     inkscape:cx="31.94085"
     inkscape:cy="31.94085"
     inkscape:window-width="1920"
     inkscape:window-height="939"
     inkscape:window-x="0"
     inkscape:window-y="34"
     inkscape:window-maximized="1"
     inkscape:current-layer="_图层_1" /><!-- Generator: Adobe Illustrator 29.0.1, SVG Export Plug-In . SVG Version: 2.1.0 Build 192)  --><defs
     id="defs6"><style
       id="style1">
      .st0 {
        fill-opacity: .5;
      }

      .st0, .st1, .st2, .st3, .st4, .st5, .st6, .st7 {
        fill: #fff;
      }

      .st8 {
        fill: #133c9a;
      }

      .st2, .st9 {
        display: none;
      }

      .st3 {
        fill-opacity: .2;
      }

      .st4 {
        fill-opacity: .9;
      }

      .st10 {
        fill: #3370ff;
      }

      .st11 {
        fill: url(#_未命名的渐变_3);
      }

      .st12 {
        fill: url(#_未命名的渐变);
      }

      .st5 {
        fill-opacity: .3;
      }

      .st6 {
        fill-opacity: 0;
      }

      .st7 {
        fill-opacity: .7;
      }

      .st13 {
        fill: #00d6b9;
      }

      .st14 {
        fill: url(#_未命名的渐变_2);
      }
    </style><radialGradient
       id="_未命名的渐变"
       data-name="未命名的渐变"
       cx="123.9"
       cy="-40.2"
       fx="123.9"
       fy="-40.2"
       r="59.4"
       gradientTransform="translate(-26.8 25.5) scale(.6 -.7)"
       gradientUnits="userSpaceOnUse"><stop
         offset="0"
         stop-color="#db202e"
         id="stop1" /><stop
         offset="1"
         stop-color="#e01b24"
         id="stop2" /></radialGradient><radialGradient
       id="_未命名的渐变_2"
       data-name="未命名的渐变 2"
       cx="67.6"
       cy="26.8"
       fx="67.6"
       fy="26.8"
       r="105.2"
       gradientTransform="translate(-26.6 25.3) scale(.6 -.7)"
       gradientUnits="userSpaceOnUse"><stop
         offset="0"
         stop-color="#ffb648"
         id="stop3" /><stop
         offset="1"
         stop-color="#ff7800"
         stop-opacity="0"
         id="stop4" /></radialGradient><radialGradient
       id="_未命名的渐变_3"
       data-name="未命名的渐变 3"
       cx="61.7"
       cy="18.6"
       fx="61.7"
       fy="18.6"
       r="68"
       gradientTransform="translate(-26.8 25.8) scale(.6 -.7)"
       gradientUnits="userSpaceOnUse"><stop
         offset="0"
         stop-color="#c64600"
         id="stop5" /><stop
         offset="1"
         stop-color="#a51d2d"
         id="stop6" /></radialGradient></defs><path
     class="st1"
     d="M47.5,64.1H13.8c-7.6,0-13.8-6.3-13.8-13.8V13.7C0,6.2,6.2,0,13.7,0h36.6c7.5,0,13.7,6.2,13.7,13.7v36.6c0,7.5-6.2,13.7-13.7,13.7h-2.9.1Z"
     id="path6" /><g
     id="g26"
     transform="matrix(0.84156335,0,0,0.80685805,4.655941,4.8519561)"><path
       d="M 43,9.9998123 A 6,6 0 0 0 37.664062,13.269343 C 27.638216,14.372948 26.056181,18.8088 20,23.999812 c -7,6 -16,8 -16,19 0,7 10,10 18,10 12,0 20,-7 26,-16 4.771712,-7.157567 12,-15 12,-19 0,-1.735943 -1.520076,-4.222548 -11.726562,-4.849609 A 6,6 0 0 0 43,9.9998123 Z"
       style="opacity:0.2"
       id="path1" /><path
       d="m 43,9 a 6,6 0 0 0 -5.335938,3.269531 C 27.638216,13.373136 26.056181,17.808988 20,23 13,29 4,31 4,42 4,49 14,52 22,52 34,52 42,45 48,36 52.771712,28.842433 60,21 60,17 60,15.264057 58.479924,12.777452 48.273438,12.150391 A 6,6 0 0 0 43,9 Z"
       style="fill:#38ac52"
       id="path2" /><path
       d="M 59.064453,14.941406 C 53.373511,16.819305 40.33069,21.446207 32,27 23.526437,32.649042 14.516299,41.725995 8.1914062,48.626953 11.839582,50.938353 17.262881,52 22,52 34,52 42,45 48,36 52.771712,28.842433 60,21 60,17 60,16.371541 59.80071,15.643237 59.064453,14.941406 Z"
       style="fill:#d5bd80"
       id="path3" /><circle
       cx="43"
       cy="15.999812"
       r="3"
       style="opacity:0.1"
       id="circle3" /><circle
       cx="43"
       cy="15"
       r="3"
       style="fill:#3f3f3f"
       id="circle4" /><path
       d="m 40.929688,34.001765 c -0.286542,0.0098 -0.567633,0.08106 -0.824219,0.208985 l -6,3 c -1.065991,0.533024 -1.432246,1.874137 -0.785157,2.875 l 11,17 C 44.688864,57.655683 45.321285,57.999837 46,57.999812 h 9 c 0,0 1.167503,0.02758 2.394531,-0.585938 C 58.621559,56.800361 60,55.166479 60,52.999812 c 0,-2.5 -1.128594,-4.322709 -2.390625,-5.164062 C 56.347344,46.994396 55,46.999812 55,46.999812 H 51.048828 L 42.644531,34.86114 c -0.388025,-0.559731 -1.034198,-0.883553 -1.714843,-0.859375 z"
       style="opacity:0.2"
       id="path4" /><path
       d="m 40.929688,33.001953 c -0.286542,0.0098 -0.567633,0.08106 -0.824219,0.208985 l -6,3 c -1.065991,0.533024 -1.432246,1.874137 -0.785157,2.875 l 11,17 C 44.688864,56.655871 45.321285,57.000025 46,57 h 9 c 0,0 1.167503,0.02758 2.394531,-0.585938 C 58.621559,55.800549 60,54.166667 60,52 60,49.5 58.871406,47.677291 57.609375,46.835938 56.347344,45.994584 55,46 55,46 H 51.048828 L 42.644531,33.861328 c -0.388025,-0.559731 -1.034198,-0.883553 -1.714843,-0.859375 z"
       style="fill:#3fbf5b"
       id="path5" /><path
       d="m 16,32.999812 c -5.733333,0 -9.1124663,3.464613 -10.570312,6.671875 -1.4578457,3.207262 -1.4296875,6.328125 -1.4296875,6.328125 v 7 c 0,1.333333 0.364533,2.692658 1.3359375,3.664062 0.9714045,0.971405 2.3307292,1.335938 3.6640625,1.335938 H 35 c 0,0 1.167503,0.02758 2.394531,-0.585938 C 38.621559,56.800361 40,55.166479 40,52.999812 c 0,-2.5 -1.128594,-4.322709 -2.390625,-5.164062 C 36.347344,46.994396 35,46.999812 35,46.999812 h -6 v -1 l -0.0078,0.181641 c 0,0 0.32754,-3.211052 -1.171876,-6.509766 C 26.320897,36.372973 22.611111,32.999812 16,32.999812 Z"
       style="opacity:0.2"
       id="path6-3" /><path
       d="M 16,32 C 10.266667,32 6.8875337,35.464613 5.4296875,38.671875 3.9718413,41.879137 4,45 4,45 v 7 c 0,1.333333 0.364533,2.692658 1.3359375,3.664062 C 6.307342,56.635467 7.6666667,57 9,57 h 26 c 0,0 1.167503,0.02758 2.394531,-0.585938 C 38.621559,55.800549 40,54.166667 40,52 40,49.5 38.871406,47.677291 37.609375,46.835938 36.347344,45.994584 35,46 35,46 h -6 v -1 l -0.0078,0.181641 c 0,0 0.32754,-3.211052 -1.171876,-6.509766 C 26.320897,35.373161 22.611111,32 16,32 Z"
       style="fill:#5dca75"
       id="path7" /><path
       d="m 43,9 a 6,6 0 0 0 -5.335938,3.269531 C 27.638216,13.373136 26.056181,17.808988 20,23 13,29 4,31 4,42 4,42.121297 4.00968,42.238522 4.015625,42.357422 4.3634915,31.924102 13.139742,29.880221 20,24 26.056181,18.808988 27.638216,14.373136 37.664062,13.269531 A 6,6 0 0 1 43,10 a 6,6 0 0 1 5.273438,3.150391 c 9.362094,0.575183 11.394223,2.708567 11.669921,4.398437 C 59.969625,17.36179 60,17.173025 60,17 60,15.264057 58.479923,12.777452 48.273438,12.150391 A 6,6 0 0 0 43,9 Z"
       style="opacity:0.2;fill:#ffffff"
       id="path8" /><path
       d="m 40.929688,33.001953 c -0.286542,0.0098 -0.567633,0.08106 -0.824219,0.208985 l -6,3 c -0.861924,0.430985 -1.255911,1.388961 -1.03711,2.269531 0.142523,-0.530167 0.501504,-1.001714 1.03711,-1.269531 l 6,-3 c 0.256586,-0.127926 0.537677,-0.199185 0.824219,-0.208985 0.680644,-0.02418 1.326818,0.299644 1.714843,0.859375 L 51.048828,47 H 55 c 0,0 1.347344,-0.0054 2.609375,0.835938 1.160031,0.773353 2.195711,2.382636 2.357422,4.578124 C 59.978284,52.276327 60,52.142482 60,52 60,49.5 58.871406,47.67729 57.609375,46.835938 56.347344,45.994584 55,46 55,46 H 51.048828 L 42.644531,33.861328 c -0.388025,-0.559731 -1.034199,-0.883553 -1.714843,-0.859375 z"
       style="opacity:0.2;fill:#ffffff"
       id="path9" /><path
       d="M 16,32 C 10.266667,32 6.8875337,35.464613 5.429688,38.671875 3.9718423,41.879137 4.0000005,45 4.0000005,45 v 1 c 0,0 -0.028159,-3.120863 1.4296875,-6.328125 C 6.8875342,36.464613 10.266668,33 16,33 22.611111,33 26.320885,36.373161 27.820312,39.671875 28.80093,41.829233 28.979549,43.85773 29,45.066406 v -0.04297 C 29.03328,44.611634 29.212439,41.734549 27.820312,38.671873 26.320885,35.373161 22.611111,32 16,32 Z m 13.001953,14 c -4.17e-4,0.0054 -0.0016,0.01873 -0.002,0.02344 V 47 h 6 c 0,0 1.347344,-0.0054 2.609375,0.835938 1.160031,0.773353 2.195711,2.382636 2.357422,4.578124 C 39.978284,52.276327 40,52.142482 40,52 40,49.5 38.871406,47.67729 37.609375,46.835938 36.347344,45.994584 35,46 35,46 Z"
       style="opacity:0.2;fill:#ffffff"
       id="path10" /></g></svg>
